X:1
T:Morrisey and the Russion Sailor
M:5/4
L:1/4
K:C
 d| g g g2 a| g f d2 e| f g2d/2-c/2 B| c2 z2 d| g g g2 a| g- f d2 e|\
 f g2d/2-c/2 B| c2 z2 d/2d/2| g g g2 a| g- f d2 e| f g2d/2-c/2 B| c2 z2 c|\
 c| d d d2- c| d d F2 G| A A G2 G| G2||
